svg/furkot/mapbox-maki/square-fill.svg

<svg viewBox="0 0 512 512" xmlns="http://www.w3.org/2000/svg"><path d="m472.616 512h-433.23c-21.753 0-39.386-17.632-39.386-39.384v-433.23c0-21.753 17.633-39.386 39.386-39.386h433.23c21.752 0 39.384 17.633 39.384 39.386v433.23c0 21.752-17.632 39.384-39.384 39.384z"/></svg>

<svg viewBox="0 0 512 512" xmlns="http://www.w3.org/2000/svg"><path d="M 472.616 512 L 39.386 512 C 17.633 512 0 494.368 0 472.616 L 0 39.386 C 0 17.633 17.633 0 39.386 0 L 472.616 0 C 494.368 0 512 17.633 512 39.386 L 512 472.616 C 512 494.368 494.368 512 472.616 512 Z"/></svg>
